TSM - Film Simulations/Color Films/Agfa Ultra Color 100.pp3
[Exposure]
Compensation=0.10

[Film Simulation]
Enabled=true
ClutFilename=Agfa\\Color\\Agfa Ultra Color 100.png
Strength=25
