TSM - Film Simulations/Color Films/Fuji 800Z.pp3
[Exposure]
Compensation=-0.12

[Film Simulation]
Enabled=true
ClutFilename=Fuji\\Color\\Fuji 800Z 2.png
Strength=50
