TSM - Film Simulations/Color Films/Fuji Sensia 100.pp3
[Exposure]
Compensation=-0.10

[Film Simulation]
Enabled=true
ClutFilename=Fuji\\Color\\Fuji Sensia 100.png
Strength=40
