TSM - Film Simulations/Color Films/Fuji Velvia 100 Generic.pp3
[Exposure]
Compensation=-0.03

[Film Simulation]
Enabled=true
ClutFilename=Fuji\\Color\\Fuji Velvia 100 Generic.png
Strength=40
