TSM - Film Simulations/Color Films/Fuji Veliva 50.pp3
[Exposure]
Compensation=0.15

[Film Simulation]
Enabled=true
ClutFilename=Fuji\\Color\\Fuji Velvia 50.png
Strength=45
