TSM - Film Simulations/Color Films/Fuji FP-100c.pp3
[Exposure]
Compensation=-0.10

[Film Simulation]
Enabled=true
ClutFilename=Fuji\\Color\\Fuji FP-100c 3.png
Strength=40
