TSM - Film Simulations/Color Films/Fuji 400H.pp3
[Exposure]
Compensation=-0.10

[Film Simulation]
Enabled=true
ClutFilename=Fuji\\Color\\Fuji 400H 2.png
Strength=50
