TSM - Film Simulations/Color Films/Fuji Superia 800.pp3
[Exposure]
Compensation=-0.05

[Film Simulation]
Enabled=true
ClutFilename=Fuji\\Color\\Fuji Superia 800 2.png
Strength=40
