TSM - Film Simulations/Color Films/Fuji Astia 100F.pp3
[Exposure]
Compensation=0.05

[Film Simulation]
Enabled=true
ClutFilename=Fuji\\Color\\Fuji Astia 100F.png
Strength=80
