TSM - Film Simulations/Color Films/Fuji Superia 1600.pp3
[Exposure]
Compensation=-0.08

[Film Simulation]
Enabled=true
ClutFilename=Fuji\\Color\\Fuji Superia 1600 2.png
Strength=40
