TSM - Film Simulations/Color Films/Fuji Astia 100 Generic.pp3
[Exposure]
Compensation=0.00

[Film Simulation]
Enabled=true
ClutFilename=Fuji\\Color\\Fuji Astia 100 Generic.png
Strength=65
