TSM - Film Simulations/Color Films/Fuji Superia 200.pp3
[Exposure]
Compensation=-0.07

[Film Simulation]
Enabled=true
ClutFilename=Fuji\\Color\\Fuji Superia 200.png
Strength=40
