TSM - Film Simulations/Color Films/Kodak Elite 100 XPRO.pp3
[Exposure]
Compensation=-0.02

[Film Simulation]
Enabled=true
ClutFilename=Kodak\\Color\\Kodak Elite 100 XPRO.png
Strength=25
