TSM - Film Simulations/Color Films/Kodak Ektachrome 100 VS.pp3
[Exposure]
Compensation=0.08

[Film Simulation]
Enabled=true
ClutFilename=Kodak\\Color\\Kodak Ektachrome 100 VS.png
Strength=30
