TSM - Film Simulations/Color Films/Kodak Ektar 100.pp3
[Exposure]
Compensation=0.10

[Film Simulation]
Enabled=true
ClutFilename=Kodak\\Color\\Kodak Ektar 100.png
Strength=75
