TSM - Film Simulations/Color Films/Kodak Kodachrome 25.pp3
[Exposure]
Compensation=-0.03

[Film Simulation]
Enabled=true
ClutFilename=Kodak\\Color\\Kodak Kodachrome 25.png
Strength=30
