TSM - Film Simulations/Color Films/Kodak Portra 800.pp3
[Exposure]
Compensation=-0.10

[Film Simulation]
Enabled=true
ClutFilename=Kodak\\Color\\Kodak Portra 800 1 -.png
Strength=50
