TSM - Film Simulations/Color Films/Kodak Portra 400 UC.pp3
[Exposure]
Compensation=-0.13

[Film Simulation]
Enabled=true
ClutFilename=Kodak\\Color\\Kodak Portra 400 UC 2.png
Strength=40
