TSM - Film Simulations/Color Films/Kodak Elite Chrome 400.pp3
[Exposure]
Compensation=0.09

[Film Simulation]
Enabled=true
ClutFilename=Kodak\\Color\\Kodak Elite Chrome 400.png
Strength=50
