TSM - Film Simulations/Color Films/Kodak Kodachrome 200.pp3
[Exposure]
Compensation=0.02

[Film Simulation]
Enabled=true
ClutFilename=Kodak\\Color\\Kodak Kodachrome 200.png
Strength=40
