TSM - Film Simulations/Color Films/Kodak Kodachrome 64 Generic.pp3
[Exposure]
Compensation=0.00

[Film Simulation]
Enabled=true
ClutFilename=Kodak\\Color\\Kodak Kodachrome 64 Generic.png
Strength=40
