TSM - Film Simulations/Color Films/Lomography X-Pro Slide 200.pp3
[Exposure]
Compensation=-0.07

[Film Simulation]
Enabled=true
ClutFilename=Lomography\\Lomography X-Pro Slide 200.png
Strength=30
