TSM - Film Simulations/Color Films/Polaroid 690.pp3
[Exposure]
Compensation=-0.06

[Film Simulation]
Enabled=true
ClutFilename=Polaroid\\Color\\Polaroid 690 2 -.png
Strength=30
