TSM - Film Simulations/Color Films/Polaroid Polachrome.pp3
[Exposure]
Compensation=-0.10

[Film Simulation]
Enabled=true
ClutFilename=Polaroid\\Color\\Polaroid Polachrome.png
Strength=50
