TSM - Film Simulations/Color Films/Polaroid PX-680.pp3
[Exposure]
Compensation=-0.10

[Film Simulation]
Enabled=true
ClutFilename=Polaroid\\Color\\Polaroid PX-680 2 -.png
Strength=50
