TSM - Film Simulations/Color Films/Polaroid 669.pp3
[Exposure]
Compensation=-0.10

[Film Simulation]
Enabled=true
ClutFilename=Polaroid\\Color\\Polaroid 669 3.png
Strength=50
