1 - PP3 Files to Install/TSM - Color & Exposure/D-Range - Tone Equalizer - Bright-like.pp3
[Exposure]
Auto=false
Clip=0.02
Compensation=1
Brightness=-1
Contrast=2
Saturation=0
Black=-500
HighlightCompr=15
HighlightComprThreshold=0
ShadowCompr=50
HistogramMatching=false
CurveFromHistogramMatching=false
ClampOOG=false
Curve=4;0;0;0.0525;0.03;0.12;0.12;0.22;0.33;0.3525;0.605;0.55;0.83;0.815;0.9675;1;1;

[HLRecovery]
Enabled=true

[ToneEqualizer]
Enabled=true
Band0=0
Band1=5
Band2=2
Band3=3
Band4=-20
Band5=0
Regularization=5
Pivot=0.5
