1 - PP3 Files to Install/TSM - Color & Exposure/D-Range - Tone Curve - Bright-like.pp3
[Exposure]
HistogramMatching=false
CurveFromHistogramMatching=false
ClampOOG=true
Curve=4;0;0;0.052499998360872269;0.029999999329447746;0.12;0.11999999731779099;0.2199999988079071;0.33000001311302185;0.35249999165534973;0.60500001907348633;0.55000001192092896;0.82999998331069946;0.81619199999999992;0.96995217874196227;1;1;
