1 - PP3 Files to Install/TSM - Color & Exposure/D-Range - Tone Curve - Natural-like.pp3
[Exposure]
HistogramMatching=false
CurveFromHistogramMatching=false
ClampOOG=true
Curve=4;0;0;0.05;0.04;0.1225;0.14;0.2175;0.3375;0.355;0.6;0.5475;0.81;0.8175;0.9575;1;1;
