1 - PP3 Files to Install/TSM - Color & Exposure/D-Range Adobe Standard 1 BT LT.pp3
[Exposure]
HistogramMatching=true
ClampOOG=true

[HLRecovery]
Enabled=false
Method=Blend

[Sharpening]
Enabled=true

[ToneEqualizer]
Enabled=false

[Color Management]
InputProfile=(cameraICC)
ToneCurve=false
ApplyLookTable=true
ApplyBaselineExposureOffset=false
ApplyHueSatMap=true
WorkingProfile=ProPhoto
OutputProfile=RTv4_sRGB
