1 - PP3 Files to Install/TSM - Color & Exposure/D-Range Color - Auto-Matched Camera Profile.pp3
[Exposure]
HistogramMatching=true
ClampOOG=true

[HLRecovery]
Enabled=false
Method=Blend

[ToneEqualizer]
Enabled=false

[Color Management]
InputProfile=(cameraICC)
ToneCurve=false
ApplyLookTable=false
ApplyBaselineExposureOffset=false
ApplyHueSatMap=true
