1 - PP3 Files to Install/TSM - Color & Exposure/Tone Equalizer - Bright-like.pp3
[Exposure]
Auto=false
Clip=0.02
Compensation=0
Brightness=-1
Contrast=2
Saturation=0
Black=-500
HighlightCompr=15
HighlightComprThreshold=0
ShadowCompr=50
HistogramMatching=false
CurveFromHistogramMatching=false
ClampOOG=true
Curve=4;0;0;0.06;0.02;0.13;0.07;0.23;0.19;0.355;0.415;0.53;0.6575;0.8;0.9;1;1;

[HLRecovery]
Enabled=true
Method=Blend
Hlbl=0
Hlth=1

[ToneEqualizer]
Enabled=true
Band0=0
Band1=10
Band2=2
Band3=3
Band4=-20
Band5=0
Regularization=5
Pivot=0.5
