1 - PP3 Files to Install/TSM - Color & Exposure/Tone Equalizer.pp3
[Exposure]
Auto=false
Clip=0.02
Compensation=0
Brightness=-1
Contrast=2
Saturation=0
Black=-500
HighlightCompr=15
HighlightComprThreshold=0
ShadowCompr=50
HistogramMatching=false
CurveFromHistogramMatching=false
ClampOOG=true

[HLRecovery]
Enabled=true
Method=Blend
Hlbl=0
Hlth=1

[ToneEqualizer]
Enabled=true
Band0=0
Band1=5
Band2=2
Band3=3
Band4=-20
Band5=0
Regularization=5
Pivot=0.5
