1 - PP3 Files to Install/TSM - Color & Exposure/Tone Curve - Bright-like.pp3
[Exposure]
HistogramMatching=false
CurveFromHistogramMatching=false
ClampOOG=false
Curve=4;0;0;0.06;0.02;0.13;0.07;0.23;0.19;0.355;0.415;0.53;0.6575;0.8;0.9;1;1;

[HLRecovery]
Enabled=true
Method=Blend
Hlbl=0
Hlth=1

[ToneEqualizer]
Enabled=false
Band0=0
Band1=5
Band2=2
Band3=3
Band4=-20
Band5=0
Regularization=5
Pivot=0.5
