1 - PP3 Files to Install/TSM - Color & Exposure/Tone Curve - Natural-like.pp3
[Exposure]
Auto=false
Clip=0.02
Compensation=0
Brightness=0
Contrast=0
Saturation=0
Black=0
HighlightCompr=0
HighlightComprThreshold=0
ShadowCompr=50
HistogramMatching=false
CurveFromHistogramMatching=false
ClampOOG=false
Curve=4;0;0;0.06;0.03;0.125;0.08;0.22;0.195;0.3525;0.415;0.5475;0.66;0.8125;0.8875;1;1;

[HLRecovery]
Enabled=true

[ToneEqualizer]
Enabled=false
