1 - PP3 Files to Install/TSM - Color & Exposure/Tone Curve 1 - Standard.pp3
[Exposure]
CurveMode=Standard
