1 - PP3 Files to Install/TSM - Color & Exposure/Tone Curve 1 - Film-like.pp3
[Exposure]
CurveMode=FilmLike
