TSM - PP3 Optional - Exposure/Auto-Matched Tone Curve - Camera standard.pp3
[Exposure]
Auto=false
Clip=0.02
Compensation=0
Brightness=0
Contrast=0
Saturation=0
Black=0
HighlightCompr=0
HighlightComprThreshold=0
ShadowCompr=50
HistogramMatching=true
CurveFromHistogramMatching=false
ClampOOG=true
CurveMode=Standard
CurveMode2=Standard
Curve=0;
Curve2=0;

[Color Management]
InputProfile=(camera)
WorkingProfile=sRGB

[Film Simulation]
Enabled=false
