TSM - PP3 Optional - Color & Exposure/Auto-Matched Tone Curve - Adobe DCP Tone Curve OFF.pp3
[Exposure]
HistogramMatching=true
ClampOOG=true

[Color Management]
ToneCurve=false
ApplyLookTable=false
ApplyBaselineExposureOffset=false
ApplyHueSatMap=false
WorkingProfile=sRGB