TSM - PP3 Optional - Color & Exposure/Auto-Matched Tone Curve - Camera Standard.pp3
[Exposure]
HistogramMatching=true
ClampOOG=true

[Color Management]
InputProfile=(camera)
ToneCurve=false
ApplyLookTable=false
ApplyBaselineExposureOffset=false
ApplyHueSatMap=false
WorkingProfile=sRGB