TSM - PP3 Optional - Color & Exposure/Tone Equalizer.pp3
[Exposure]
Contrast=2
Black=0
HighlightCompr=0
HighlightComprThreshold=0
ShadowCompr=0

[HLRecovery]
Enabled=true
Method=Blend
Hlbl=0

[ToneEqualizer]
Enabled=true
Band0=-25
Band1=5
Band2=3
Band3=0
Band4=-25
Regularization=0
Pivot=0.5
