1 - PP3 Files to Install/Pentax K-3II Color/D-Range RawTherapee K-3II Camera Standard.pp3
[Exposure]
HistogramMatching=true
ClampOOG=true

[HLRecovery]
Enabled=false
Method=Blend

[Sharpening]
Enabled=true

[ToneEqualizer]
Enabled=false

[Color Management]
InputProfile=(camera)
ToneCurve=false
ApplyLookTable=false
ApplyBaselineExposureOffset=false
ApplyHueSatMap=false
WorkingProfile=ProPhoto
OutputProfile=RTv4_sRGB