1 - PP3 Files to Install/Pentax K-3II Color/D-range K-3II Adobe DCP Tone Curve Natural.pp3
[Exposure]
HistogramMatching=true
ClampOOG=true

[HLRecovery]
Enabled=false
Method=Blend

[Sharpening]
Enabled=true

[ToneEqualizer]
Enabled=false

[Color Management]
InputProfile=file:PENTAX k-3II Natural.dcp
ToneCurve=true
ApplyLookTable=true
ApplyBaselineExposureOffset=false
ApplyHueSatMap=true
WorkingProfile=Adobe RGB
OutputProfile=No ICM: sRGB output