1 - PP3 Files to Install/Pentax K-3II Color/D-range K-3II Vibrant.pp3
[Exposure]
HistogramMatching=true
ClampOOG=true

[HLRecovery]
Enabled=false
Method=Blend

[Sharpening]
Enabled=false

[ToneEqualizer]
Enabled=false

[Color Management]
InputProfile=file:PENTAX K-3II Vibrant.dcp
ToneCurve=true
ApplyLookTable=false
ApplyBaselineExposureOffset=false
ApplyHueSatMap=true
WorkingProfile=sRGB
OutputProfile=No ICM: sRGB output
