1 - PP3 Files to Install/Pentax K-3II Color/D-range K-3II Bright.pp3
[Exposure]
HistogramMatching=true
ClampOOG=true

[HLRecovery]
Enabled=false
Method=Blend

[Sharpening]
Enabled=true

[ToneEqualizer]
Enabled=false

[Color Management]
InputProfile=file:PENTAX k-3II Bright.dcp
ToneCurve=false
ApplyLookTable=false
ApplyBaselineExposureOffset=false
ApplyHueSatMap=true
WorkingProfile=BestRGB
OutputProfile=No ICM: sRGB output
