Pentax K-1 Color/D-range K-1 Natural.pp3
[Exposure]
HistogramMatching=true
ClampOOG=true

[HLRecovery]
Enabled=false
Method=Blend

[Directional Pyramid Denoising]
Method=RGB

[ToneEqualizer]
Enabled=false

[Color Management]
InputProfile=(camera)
ToneCurve=false
ApplyLookTable=false
ApplyBaselineExposureOffset=false
ApplyHueSatMap=true
WorkingProfile=sRGB
