Pentax K-3II Color/D-range K-3II Portrait.pp3
[Exposure]
HistogramMatching=true
ClampOOG=true

[HLRecovery]
Enabled=false
Method=Blend

[Sharpening]
Enabled=false

[ToneEqualizer]
Enabled=false

[Color Management]
InputProfile=file:PENTAX K-3II Portrait.dcp
ToneCurve=false
ApplyLookTable=false
ApplyBaselineExposureOffset=false
ApplyHueSatMap=true
WorkingProfile=sRGB