Pentax K-3II Color/K-3II Landscape.pp3
[Exposure]
Auto=false
Clip=0.02
Compensation=0
Brightness=0
Contrast=0
Saturation=0
Black=0
HighlightCompr=0
HighlightComprThreshold=0
ShadowCompr=50
HistogramMatching=false
CurveFromHistogramMatching=false
ClampOOG=true
CurveMode=Standard
CurveMode2=Standard
Curve=4;0;0;0.0525;0.02;0.1275;0.07;0.23;0.19;0.3575;0.415;0.5325;0.6575;0.8;0.9;1;1;
Curve2=0;

[HLRecovery]
Enabled=false

[ToneEqualizer]
Enabled=false

[Color Management]
InputProfile=file:PENTAX K-3II Landscape.dcp
ToneCurve=false
ApplyLookTable=false
ApplyBaselineExposureOffset=false
ApplyHueSatMap=true
WorkingProfile=sRGB
