TSM - Film Simulations/Turn Off Film Simulation.pp3
[Exposure]
Compensation=0.00

[Film Simulation]
Enabled=false
ClutFilename=
Strength=100
