1 - PP3 Files to Install/Pentax K-3III Color/D-range K-3III Natural.pp3
[Exposure]
HistogramMatching=true
ClampOOG=true

[HLRecovery]
Enabled=true
Method=Blend

[Directional Pyramid Denoising]
Method=RGB

[ToneEqualizer]
Enabled=false

[Color Management]
InputProfile=(camera)
ToneCurve=false
ApplyLookTable=false
ApplyBaselineExposureOffset=false
ApplyHueSatMap=true
WorkingProfile=sRGB
