1 - PP3 Files to Install/Pentax K-3III Color/Tone Equalizer K-3III Bright.pp3
[Exposure]
Contrast=0
HistogramMatching=false
Curve=3;0;0;0.105;0.095;0.3;0.3;0.8975;0.9025;1;1;
Curve2=0;

[HLRecovery]
Enabled=true
Method=Blend

[Directional Pyramid Denoising]
Method=Lab

[ToneEqualizer]
Enabled=true

[Color Management]
InputProfile=file:PENTAX K-3III Bright.dcp
ToneCurve=true
ApplyLookTable=true
ApplyBaselineExposureOffset=false
ApplyHueSatMap=true
WorkingProfile=ProPhoto
