PP3 Linux/TSM - PP3 Optional - Color & Exposure/Exposure - Shadow Correction Only.pp3
[Exposure]
Black=-1500
ShadowCompr=25
