PP3 Linux/TSM - PP3 Optional - Color & Exposure/Exposure - Highlight Correction Only.pp3
[Exposure]
HighlightCompr=50
HighlightComprThreshold=75

[HLRecovery]
Enabled=true
Method=Blend
Hlbl=0
