PP3 Linux/TSM - PP3 Optional - Color & Exposure/Exposure - Both Highlight & Shadow Correction.pp3
[Exposure]
Black=-1500
HighlightCompr=50
HighlightComprThreshold=75
ShadowCompr=25

[HLRecovery]
Enabled=true
Method=Blend
Hlbl=0
