PP3 Linux/TSM - PP3 Optional - Color & Exposure/Pentax Portrait.pp3
[Exposure]
HistogramMatching=false
Curve=0;
Curve2=0;

[Channel Mixer]
Enabled=false

[Black & White]
Enabled=false

[Vibrance]
Enabled=false

[Color Management]
InputProfile=file:/usr/share/Pentax DCP/Portrait.dcp
ToneCurve=true
ApplyLookTable=true
ApplyBaselineExposureOffset=false
ApplyHueSatMap=true
WorkingProfile=ProPhoto

[HSV Equalizer]
Enabled=false

[SoftLight]
Enabled=false

[Film Simulation]
Enabled=false

[RGB Curves]
Enabled=false

[ColorToning]
Enabled=false

[Film Negative]
Enabled=false
