TSM - Film Simulations/Black & White Films/Fuji FP-3000b Negative.pp3
[Exposure]
Compensation=0.00

[Film Simulation]
Enabled=true
ClutFilename=Fuji\\BW\\Fuji FP-3000b Negative 1 --.png
Strength=100
