TSM - Film Simulations/Black & White Films/Ilford Pan F Plus 50.pp3
[Exposure]
Compensation=0.00

[Film Simulation]
Enabled=true
ClutFilename=Ilford\\Ilford Pan F Plus 50.png
Strength=100