TSM - Film Simulations/Black & White Films/Polaroid 665.pp3
[Exposure]
Compensation=0.00

[Film Simulation]
Enabled=true
ClutFilename=Polaroid\\BW\\Polaroid 665 1 --.png
Strength=100
