Installation - PP3 only/1 - PP3 Files to Install/Pentax K-70 Color/K-70 Portrait.pp3
[Exposure]
Contrast=0
HistogramMatching=false
Curve=0;
Curve2=0;

[HLRecovery]
Enabled=false
Method=Blend

[Directional Pyramid Denoising]
Method=Lab

[ToneEqualizer]
Enabled=false

[Color Management]
InputProfile=file:PENTAX K-70 Portrait.dcp
ToneCurve=true
ApplyLookTable=true
ApplyBaselineExposureOffset=false
ApplyHueSatMap=true
WorkingProfile=ProPhoto
