Installation - PP3 only/1 - PP3 Files to Install/Pentax K-70 Color/Tone Equalizer K-70 Natural.pp3
[Exposure]
Contrast=2
HistogramMatching=false
Curve=0;
Curve2=0;

[HLRecovery]
Enabled=true
Method=Blend

[Directional Pyramid Denoising]
Method=RGB

[ToneEqualizer]
Enabled=true

[Color Management]
InputProfile=file:PENTAX K-70 Natural.dcp
ToneCurve=true
ApplyLookTable=true
ApplyBaselineExposureOffset=false
ApplyHueSatMap=true
WorkingProfile=ProPhoto
