PP3 Windows/TSM - PP3 Optional - Color & Exposure/Auto-Matched Tone Curve.pp3
[Exposure]
HistogramMatching=true
ClampOOG=true

[Color Management]
ToneCurve=false
ApplyLookTable=false
ApplyBaselineExposureOffset=false
ApplyHueSatMap=true
WorkingProfile=sRGB
