Installation - PP3 only/1 - PP3 Files to Install/TSM - Film Simulations/Color Films/Agfa Precisa 100.pp3
[Exposure]
Compensation=0.05

[Film Simulation]
Enabled=true
ClutFilename=Agfa\\Color\\Agfa Precisa 100.png
Strength=50
