Installation - PP3 only/1 - PP3 Files to Install/TSM - Film Simulations/Color Films/Fuji Provia 100 Generic.pp3
[Exposure]
Compensation=-0.05

[Film Simulation]
Enabled=true
ClutFilename=Fuji\\Color\\Fuji Provia 100 Generic.png
Strength=45
