Installation - PP3 only/1 - PP3 Files to Install/TSM - Film Simulations/Color Films/Fuji Provia 400F.pp3
[Exposure]
Compensation=0.03

[Film Simulation]
Enabled=true
ClutFilename=Fuji\\Color\\Fuji Provia 400F.png
Strength=40
