Installation - PP3 only/1 - PP3 Files to Install/TSM - Film Simulations/Color Films/Fuji Superia Reala 100.pp3
[Exposure]
Compensation=-0.05

[Film Simulation]
Enabled=true
ClutFilename=Fuji\\Color\\Fuji Superia Reala 100.png
Strength=60
