Installation - PP3 only/1 - PP3 Files to Install/TSM - Film Simulations/Color Films/Fuji 160C.pp3
[Exposure]
Compensation=-0.10

[Film Simulation]
Enabled=true
ClutFilename=Fuji\\Color\\Fuji 160C 2.png
Strength=50
