Installation - PP3 only/1 - PP3 Files to Install/TSM - Film Simulations/Color Films/Fuji Superia 400.pp3
[Exposure]
Compensation=-0.10

[Film Simulation]
Enabled=true
ClutFilename=Fuji\\Color\\Fuji Superia 400 2.png
Strength=40
