Installation - PP3 only/1 - PP3 Files to Install/TSM - Film Simulations/Color Films/Kodak Elite Chrome 200.pp3
[Exposure]
Compensation=0.08

[Film Simulation]
Enabled=true
ClutFilename=Kodak\\Color\\Kodak Elite Chrome 200.png
Strength=50
