Installation - PP3 only/1 - PP3 Files to Install/TSM - Film Simulations/Color Films/Kodak Kodachrome 64.pp3
[Exposure]
Compensation=-0.05

[Film Simulation]
Enabled=true
ClutFilename=Kodak\\Color\\Kodak Kodachrome 64.png
Strength=40
