Installation - PP3 only/1 - PP3 Files to Install/TSM - Film Simulations/Color Films/Polaroid PX-70.pp3
[Exposure]
Compensation=-0.05

[Film Simulation]
Enabled=true
ClutFilename=Polaroid\\Color\\Polaroid PX-70 3.png
Strength=50
