1 - PP3 Files to Install/Pentax K-1 Color/K-1 Vibrant.pp3
[Exposure]
Contrast=0
HistogramMatching=false
Curve=0;
Curve2=0;

[HLRecovery]
Enabled=false
Method=Blend

[Directional Pyramid Denoising]
Method=Lab

[ToneEqualizer]
Enabled=false

[Color Management]
InputProfile=file:PENTAX K-1 Vibrant.dcp
ToneCurve=true
ApplyLookTable=true
ApplyBaselineExposureOffset=false
ApplyHueSatMap=true
WorkingProfile=ProPhoto
