Pentax K-70 Color/K-70 Landscape.pp3
[Exposure]
Contrast=0
HistogramMatching=false
Curve=3;0;0;0.105;0.095;0.3;0.3;0.8975;0.9025;1;1;
Curve2=0;

[HLRecovery]
Enabled=false
Method=Blend

[Directional Pyramid Denoising]
Method=Lab

[ToneEqualizer]
Enabled=false

[Color Management]
InputProfile=file:PENTAX K-70 Landscape.dcp
ToneCurve=true
ApplyLookTable=true
ApplyBaselineExposureOffset=false
ApplyHueSatMap=true
WorkingProfile=ProPhoto
