Pentax K-70 Color/K-70 Natural.pp3
[Exposure]
Contrast=0
HistogramMatching=false
Curve=0;
Curve2=0;

[HLRecovery]
Enabled=false
Method=Blend

[Directional Pyramid Denoising]
Method=RGB

[ToneEqualizer]
Enabled=false

[Color Management]
InputProfile=file:PENTAX K-70 Natural.dcp
ToneCurve=true
ApplyLookTable=true
ApplyBaselineExposureOffset=false
ApplyHueSatMap=true
WorkingProfile=ProPhoto
