PP3 Camera Specific for Windows/Pentax K-3II/Pentax K-3II Bright.pp3
[Exposure]
HistogramMatching=false
CurveMode=Standard
CurveMode2=Standard
Curve=4;0;0;0.1045;0.0955;0.3;0.3;0.8985;0.9015;1;1;
Curve2=0;

[FattalToneMapping]
Enabled=false

[Channel Mixer]
Enabled=false

[Black & White]
Enabled=false

[Vibrance]
Enabled=false

[Color Management]
InputProfile=file:C:\\Program Files\\RawTherapee\\Pentax DCP\\RICOH PENTAX K-3II Bright.dcp
ToneCurve=true
ApplyLookTable=true
ApplyBaselineExposureOffset=false
ApplyHueSatMap=true
WorkingProfile=ProPhoto

[HSV Equalizer]
Enabled=false

[SoftLight]
Enabled=false

[Film Simulation]
Enabled=false

[RGB Curves]
Enabled=false

[ColorToning]
Enabled=false

[Film Negative]
Enabled=false
