Installation - PP3 only/1 - PP3 Files to Install/TSM - Film Simulations/Black & White Films/Kodak TRI-X 400.pp3
[Exposure]
Compensation=0.00

[Film Simulation]
Enabled=true
ClutFilename=Kodak\\BW\\Kodak TRI-X 400 1 -.png
Strength=100
