PP3 Camera Specific for Windows/Pentax K-50/Pentax K-50 Vibrant.pp3
[Exposure]
HistogramMatching=false
Curve=0;
Curve2=0;

[FattalToneMapping]
Enabled=false

[Channel Mixer]
Enabled=false

[Black & White]
Enabled=false

[Vibrance]
Enabled=false

[Color Management]
InputProfile=file:C:\\Program Files\\RawTherapee\\Pentax DCP\\PENTAX K-50 Vibrant.dcp
ToneCurve=true
ApplyLookTable=true
ApplyBaselineExposureOffset=false
ApplyHueSatMap=true
WorkingProfile=ProPhoto

[HSV Equalizer]
Enabled=false

[SoftLight]
Enabled=false

[Film Simulation]
Enabled=false

[RGB Curves]
Enabled=false

[ColorToning]
Enabled=false

[Film Negative]
Enabled=false
