Installation - PP3 only/1 - PP3 Files to Install/Pentax KP Color/D-range KP Portrait.pp3
[Exposure]
HistogramMatching=true
ClampOOG=true

[HLRecovery]
Enabled=false
Method=Blend

[Directional Pyramid Denoising]
Method=Lab

[ToneEqualizer]
Enabled=false

[Color Management]
InputProfile=file:PENTAX KP Portrait.dcp
ToneCurve=false
ApplyLookTable=false
ApplyBaselineExposureOffset=false
ApplyHueSatMap=true
WorkingProfile=sRGB