1 - PP3 Files to Install/Pentax K-1II Color/D-range K-1II Adobe DCP Tone Curve Natural.pp3
[Exposure]
HistogramMatching=true
ClampOOG=true

[HLRecovery]
Enabled=false
Method=Blend

[Sharpening]
Enabled=true

[ToneEqualizer]
Enabled=false

[Color Management]
InputProfile=file:PENTAX K-1II Natural.dcp
ToneCurve=true
ApplyLookTable=false
ApplyBaselineExposureOffset=false
ApplyHueSatMap=true
WorkingProfile=ProPhoto
OutputProfile=RTv4_sRGB