1 - PP3 Files to Install/Pentax KP Color/D-Range Pentax KP Landscape 2 BT LT.pp3
[Exposure]
HistogramMatching=true
ClampOOG=true

[HLRecovery]
Enabled=false
Method=Blend

[Sharpening]
Enabled=true

[ToneEqualizer]
Enabled=false

[Color Management]
InputProfile=file:PENTAX KP Landscape.dcp
ToneCurve=false
ApplyLookTable=true
ApplyBaselineExposureOffset=false
ApplyHueSatMap=true
WorkingProfile=ProPhoto
OutputProfile=RTv4_sRGB
