1 - PP3 Files to Install/Pentax KP Color/D-range KP Landscape.pp3
[Exposure]
HistogramMatching=true
ClampOOG=true

[HLRecovery]
Enabled=false
Method=Blend

[Sharpening]
Enabled=true

[ToneEqualizer]
Enabled=false

[Color Management]
InputProfile=file:PENTAX KP Landscape.dcp
ToneCurve=false
ApplyLookTable=false
ApplyBaselineExposureOffset=false
ApplyHueSatMap=true
WorkingProfile=BestRGB
OutputProfile=No ICM: sRGB output
