1 - PP3 Files to Install/Pentax K-50 Color/D-Range Pentax K-50 Bright 3 TC BT LT.pp3
[Exposure]
HistogramMatching=true
ClampOOG=true

[HLRecovery]
Enabled=false
Method=Blend

[ToneEqualizer]
Enabled=false

[Color Management]
InputProfile=file:PENTAX K-50 Bright.dcp
ToneCurve=true
ApplyLookTable=true
ApplyBaselineExposureOffset=false
ApplyHueSatMap=true
WorkingProfile=ProPhoto
OutputProfile=RTv4_sRGB
