1 - PP3 Files to Install/Pentax K-50 Color/D-range K-50 Adobe DCP Tone Curve Natural.pp3
[Exposure]
HistogramMatching=true
ClampOOG=true

[HLRecovery]
Enabled=false
Method=Blend

[Sharpening]
Enabled=false

[ToneEqualizer]
Enabled=false

[Color Management]
InputProfile=(camera)
ToneCurve=true
ApplyLookTable=true
ApplyBaselineExposureOffset=false
ApplyHueSatMap=true
WorkingProfile=sRGB
OutputProfile=No ICM: sRGB output