1 - PP3 Files to Install/Pentax K-50 Color/D-range K-50 Landscape.pp3
[Exposure]
HistogramMatching=true
ClampOOG=true

[HLRecovery]
Enabled=true
Method=Blend

[Sharpening]
Enabled=true

[ToneEqualizer]
Enabled=false

[Color Management]
InputProfile=file:PENTAX K-50 Landscape.dcp
ToneCurve=false
ApplyLookTable=false
ApplyBaselineExposureOffset=false
ApplyHueSatMap=true
WorkingProfile=Adobe RGB
OutputProfile=No ICM: sRGB output
