TSM - PP3 Optional - Color/Pentax Auto-Matched Tone Curve - ProPhoto.pp3
[Exposure]
HistogramMatching=true

[Color Management]
ToneCurve=false
ApplyLookTable=true
ApplyBaselineExposureOffset=true
ApplyHueSatMap=true
WorkingProfile=ProPhoto
