Installation - PP3 only/1 - PP3 Files to Install/Pentax K-50 Color/D-range K-50 Vibrant.pp3
[Exposure]
HistogramMatching=true
ClampOOG=true

[HLRecovery]
Enabled=false
Method=Blend

[ToneEqualizer]
Enabled=false

[Color Management]
InputProfile=file:PENTAX K-50 Vibrant.dcp
ToneCurve=false
ApplyLookTable=false
ApplyBaselineExposureOffset=false
ApplyHueSatMap=true
WorkingProfile=sRGB