1 - PP3 Files to Install/Pentax K-70 Color/D-range RawTherapee K-70 Embedded.pp3
[Exposure]
HistogramMatching=true
ClampOOG=true

[HLRecovery]
Enabled=false
Method=Blend

[Sharpening]
Enabled=false

[ToneEqualizer]
Enabled=false

[Color Management]
InputProfile=(embedded)
ToneCurve=false
ApplyLookTable=false
ApplyBaselineExposureOffset=false
ApplyHueSatMap=true
WorkingProfile=ProPhoto
OutputProfile=No ICM: sRGB output