1 - PP3 Files to Install/TSM - PP3 Optional - Color & Exposure/Auto-Matched Tone Curve - Camera Standard.pp3
[Exposure]
HistogramMatching=true
ClampOOG=true

[HLRecovery]
Enabled=false
Method=Blend

[Sharpening]
Enabled=true

[ToneEqualizer]
Enabled=false

[Color Management]
InputProfile=(camera)
ToneCurve=false
ApplyLookTable=false
ApplyBaselineExposureOffset=false
ApplyHueSatMap=true
WorkingProfile=ProPhoto
OutputProfile=RTv4_sRGB