1 - PP3 Files to Install/Pentax Q7 Color/D-Range Pentax Q7 Landscape 2 TC BT LT.pp3
[Exposure]
HistogramMatching=true
ClampOOG=true

[HLRecovery]
Enabled=false
Method=Blend

[Sharpening]
Enabled=true

[ToneEqualizer]
Enabled=false

[Color Management]
InputProfile=file:PENTAX Q7 Landscape.dcp
ToneCurve=true
ApplyLookTable=true
ApplyBaselineExposureOffset=false
ApplyHueSatMap=true
WorkingProfile=ProPhoto
OutputProfile=RTv4_sRGB
